X:1
T:Title
%%score { ( 1 4 ) | ( 2 3 ) }
L:1/8
Q:1/4=100
M:2/2
K:Ab
V:1 treble nm="Grand Piano"
V:4 treble 
V:2 bass 
V:3 bass 
V:1
 [CE]2 [Ec]2 [DB]2 [CA]2 | [CE]4 E4 | F2 [Fd]2 [Ec]2 B2 | F4 F4 | G2 G2 [=EG]2 [EB]2 | %5
w: M.~A.~Sea * * *|||||
 [CGB]4 [CFA]4 | [CFA]2 [CFA]2 [C=DA]2 [Dc]2 | [Ec]4 [EB]4 | [GB]2 [GB]2 [_Gc]2 [Gc]2 | %9
w: ||||
 [Fe]2 [Fd]2 A2 B2 | c4 B4 | [CEA]8 |] %12
w: |||
V:2
 [A,,A,]2 [A,,A,]2 [A,,E,]2 [A,,E,]2 | [A,,A,]4 [C,A,]4 | [D,A,D]2 [D,A,]2 [D,F,]2 [D,F,D]2 | %3
 D4 z4 | [E,B,E]2 [E,B,E]2 [C,C]2 [C,C]2 | F,4 F,4 | F,2 F,2 B,,2 [B,,B,]2 | [E,A,]4 [E,G,]4 | %8
 [E,D]2 [E,D]2 [A,,A,]2 [A,,A,]2 | [D,A,]2 [D,A,]2 C2 D2 | E4 E4 | A,,8 |] %12
V:3
 x8 | x8 | x8 | [D,B,]8 | x8 | x8 | x8 | x8 | x8 | x8 | [E,A,]2 E,2 [E,G,]2 E,2 | x8 |] %12
V:4
 x8 | x8 | x8 | x8 | x8 | x8 | x8 | x8 | x8 | x8 | z2 A,2 z2 D2 | x8 |] %12

